src/symbolic/places/folder-templates-symbolic.svg

<svg xmlns="http://www.w3.org/2000/svg" width="16" height="16"><path d="M7 0v2H6c-.55 0-1 .45-1 1v4l.54.54-3.41 5.96L2 16l1.87-1.5.72-1.27c1.07.5 2.23.77 3.41.77 1.18 0 2.34-.27 3.41-.77l.72 1.27L14 16l-.13-2.5-.77-1.34A7.989 7.989 0 0 0 16 6h-2c0 1.66-.69 3.25-1.91 4.38l-1.63-2.84L11 7V3c0-.55-.45-1-1-1H9V0zm1 4c.55 0 1 .45 1 1s-.45 1-1 1-1-.45-1-1 .45-1 1-1zm-.99 5c.63.31 1.26.54 1.98 0l1.42 2.49c-.76.33-1.58.51-2.41.51-.83 0-1.65-.18-2.41-.51z" fill="#565656"/></svg>

<svg xmlns="http://www.w3.org/2000/svg" width="16" height="16" version="1.1">
 <path style="fill:#565656" d="M 7,0 V 2 H 6 C 5.45,2 5,2.45 5,3 V 7 L 5.54,7.54 2.13,13.5 2,16 3.87,14.5 4.59,13.23 C 5.66,13.73 6.82,14 8,14 9.18,14 10.34,13.73 11.41,13.23 L 12.13,14.5 14,16 13.87,13.5 13.1,12.16 C 14.94,10.64 16,8.38 16,6 H 14 C 14,7.66 13.31,9.25 12.09,10.38 L 10.46,7.54 11,7 V 3 C 11,2.45 10.55,2 10,2 H 9 V 0 Z M 8,4 C 8.55,4 9,4.45 9,5 9,5.55 8.55,6 8,6 7.45,6 7,5.55 7,5 7,4.45 7.45,4 8,4 Z M 7.01,9 C 7.64,9.31 8.27,9.54 8.99,9 L 10.41,11.49 C 9.65,11.82 8.83,12 8,12 7.17,12 6.35,11.82 5.59,11.49 Z"/>
</svg>
